X:1
T: The Mackenzie Delta Reel
C:
R:Reel
Q: 232
K:G
M:4/4
L:1/8
|:CD EF GE CE|D2 DD D4|CD EF GE CE|D2 DD D4|
CD EF GE DC|CD EF GE DC|CD EF GE CE|D2 DD D4:|
A8|A8|A4 A4|A4 A4|
|:d2 ^cB A2 AF|AB AF D4|=c2 BA G2 GE|GA GE C4|
d2 ^cB A2 AF|AB AF D4|CD EF GE CE|D2 DD D4:|
|:a2 ag f2 fg|ab ag f4|g2 gf e2 ef|ga gf e4|
a2 ag f2 fg|ab ag f4|cd ef ge ce|d2 dd d2 z2||
